X: 1462
T: The Maid At The Churn
M:C|
L:1/8
N:"collected by McNamara"
B:O'Neill's 1462
Z:"Transcribed by Bob Safranek, rjs@gsp.org"
K:G
(G"   Sign"F) | DGGA BGAF | DEFd cFAF | DGGA Bcdg | ((3fed) ((3cBA) BGAF   |
       DGGA BGAF | DEFd cFAF | DGGA Bcdg | ((3fed) ((3cBA) BG "    Fine"G2 ||
gd (3.g.g.g gbag | gc (3.c.c.c fgaf | gd (3.g.g.g gbag | ((3fed) ((3cBA) BGBd |
gd (3.g.g.g gbag | fdef gfga | ((3bag) ((3gfe) ((3fed) ((3efg) |\
((3fed) ((3cBA) BGA"   Sign"F |]


